X:14616
T:Royal Quickstep. BF12.21
M:6/8
Q:120
C:Browne "C" hand
S:MS12,c1835,Browne Coll.,Lakes
R:Q'step
O:England
A:Lakes
Z:vmp.Chris Partington
K:D
A|d2A F{G}DF|F{G}DF AFD|d2A FDF|FDF BGE|!
d2A FDF FDF AFD|BGB AFA|EDE FA||!
A|d2d fdf|afd bge|d2d fdf afd ecA|!
d2d fdf|gabg2f|geg fdf|cBc ecA|]
